dist/svg/connecting.svg

<!-- Generated by Trend Micro Style Portal -->
<svg version="1.1" xmlns="http://www.w3.org/2000/svg" width="16" height="16" viewBox="0 0 16 16">
  <title>connecting</title>
  <path fill="rgb(34,34,34)" d="M5.354 3.646c0.090 0.090 0.146 0.215 0.146 0.354s-0.056 0.263-0.146 0.354l-3.646 3.646 3.646 3.646c0.090 0.090 0.146 0.216 0.146 0.354 0 0.276-0.224 0.5-0.5 0.5-0.138 0-0.263-0.056-0.354-0.146l-4-4c-0.090-0.090-0.146-0.215-0.146-0.354s0.056-0.263 0.146-0.354l4-4c0.090-0.091 0.215-0.146 0.354-0.146s0.263 0.056 0.354 0.146v0zM5 9c0.552 0 1-0.448 1-1s-0.448-1-1-1c-0.552 0-1 0.448-1 1v0c0 0.552 0.448 1 1 1v0zM8 9c0.552 0 1-0.448 1-1s-0.448-1-1-1c-0.552 0-1 0.448-1 1v0c0 0.552 0.448 1 1 1v0zM12 8c0 0.552-0.448 1-1 1s-1-0.448-1-1c0-0.552 0.448-1 1-1v0c0.552 0 1 0.448 1 1v0zM11.354 3.646c-0.090-0.091-0.216-0.146-0.354-0.146-0.276 0-0.5 0.224-0.5 0.5 0 0.138 0.056 0.263 0.146 0.354l3.646 3.646-3.646 3.646c-0.090 0.090-0.145 0.215-0.145 0.352 0 0.276 0.224 0.5 0.5 0.5 0.137 0 0.262-0.055 0.352-0.145l4-4c0.090-0.091 0.146-0.215 0.146-0.354s-0.056-0.263-0.146-0.354v0z"></path>
</svg>

<svg width="16" height="16" viewBox="0 0 16 16" fill="rgb(34, 34, 34)" xmlns="http://www.w3.org/2000/svg"><title>connecting</title><path d="M5.354 3.646C5.444 3.736 5.5 3.861 5.5 4C5.5 4.139 5.444 4.263 5.354 4.354L1.708 8L5.354 11.646C5.444 11.736 5.5 11.862 5.5 12C5.5 12.276 5.276 12.5 5 12.5C4.862 12.5 4.737 12.444 4.646 12.354L0.646 8.354C0.556 8.264 0.5 8.139 0.5 8C0.5 7.861 0.556 7.737 0.646 7.646L4.646 3.646C4.736 3.555 4.861 3.5 5 3.5C5.139 3.5 5.263 3.556 5.354 3.646ZM5 9C5.552 9 6 8.552 6 8C6 7.448 5.552 7 5 7C4.448 7 4 7.448 4 8C4 8.552 4.448 9 5 9ZM8 9C8.552 9 9 8.552 9 8C9 7.448 8.552 7 8 7C7.448 7 7 7.448 7 8C7 8.552 7.448 9 8 9ZM12 8C12 8.552 11.552 9 11 9C10.448 9 10 8.552 10 8C10 7.448 10.448 7 11 7C11.552 7 12 7.448 12 8ZM11.354 3.646C11.264 3.555 11.138 3.5 11 3.5C10.724 3.5 10.5 3.724 10.5 4C10.5 4.138 10.556 4.263 10.646 4.354L14.292 8L10.646 11.646C10.556 11.736 10.501 11.861 10.501 11.998C10.501 12.274 10.725 12.498 11.001 12.498C11.138 12.498 11.263 12.443 11.353 12.353L15.353 8.353C15.443 8.262 15.499 8.138 15.499 7.999C15.499 7.86 15.443 7.736 15.353 7.645L11.354 3.646Z" fill="rgb(34, 34, 34)" fill-opacity="1.00"/></svg>
